X:1
T:Title
%%score ( 1 2 ) ( 3 4 )
L:1/8
Q:1/4=103
M:6/8
K:D
V:1 treble nm="Grand Piano, Soprano"
V:2 treble 
V:3 bass nm="Choir Pad, Twentynine Palms, 76.76 D"
V:4 bass 
V:1
 z3 .F3 | [FA]2 [GB] [FA]3 | D2 [DF] [FA]2 [DF] | [DF]3 [CE]3 | z3 .F3 | [FA]2 [GB] [FA]3 | %6
 [FA]2 [Fd] [FA]2 [DF] | [CE]3 D3 | [CE]2 [DF] [EG][DF][CE] | [DF]2 [FA] [Fd]3 | %10
 [CE]2 [DF] [EG][DF][CE] | [=FB]3 [^FA]3 | [Fd]2 [FA] [FA][EG][DF] | [DG]2 [DA] [DB]3 | %14
 [DA]2 [Fd] [FA]2 [DF] | [CE]3 D3- | D6 |] %17
V:2
 [DF]2 [DF] D-[DE]D | x6 | x6 | x6 | [DF]2 [DF] D-[DE]D | x6 | x6 | x6 | x6 | x6 | x6 | x6 | x6 | %13
 x6 | x6 | x6 | x6 |] %17
V:3
 [D,A,]2 [D,A,] A,G,[D,F,] | [D,D]2 [D,D] [D,D]3 | [D,F,]2 [D,A,] [D,D]2 [D,A,] | %3
 [A,,A,]3 [A,,A,]3 | [D,A,]2 [D,A,] A,G,[D,F,] | [D,D]2 [D,D] [D,D]3 | %6
 [D,D]2 [D,A,] [D,D]2 [D,A,] | [A,,G,]3 [D,F,]3 | [A,,A,]2 [A,,A,] [A,,A,]2 [A,,A,] | %9
 [D,A,]2 [D,A,] [D,A,]3 | [A,,A,]2 [A,,A,] [A,,A,]2 [A,,A,] | [D,^G,]3 [D,A,]3 | %12
 [D,A,]2 [D,D] [D,D]2 A,/-[=C,A,]/ | [B,,G,]2 [A,,F,] [G,,G,]3 | [D,F,]2 [D,A,] [D,D]2 [D,A,] | %15
 [A,,G,]3 [D,F,]3- | [D,F,]6 |] %17
V:4
 z3 .D,3 | x6 | x6 | x6 | z3 .D,3 | x6 | x6 | x6 | x6 | x6 | x6 | x6 | z3 z2 .D, | x6 | x6 | x6 | %16
 x6 |] %17

